X: 20656
T: John Stewart
R: reel
M: 4/4
K: Gdorian
G|DGG>c B/c/d c>B|A>Fc>F d>Fc>F|DGG>c d>efd|c<Af>A G2 G:|
A|Ggg>a b2 ag|f>ca>c f>ca>f|dgg>a b2 ag|f>dc>A G2 G>A|
Ggg>a b2 ag|f>cf>g a>gfa|g>af>g d>e c<f|A>Fc>A G2 G||

